!!!SOCIAL_FUNCTION:	tobacco dance songs
!!!PDT:	1932
!!!OTL: No_110_Tobacco_Dance_Song_(b).krn
!!!REG: Wisconsin
!!!LANG: Non-Tone
!!!LING_GROUP: Algonquin
**kern
*staff1
=1-
*clefF4
*k[]
*M2/4
4r
8r
8C/
=2
8C/L
8G/J
8G\
8r
=3
8c\L
8F\J
8F\
8r
=4
8D/L
8C/J
8C/
8r
=5
8r
8G\
8G\L
8F#\J
=6
8F\
8r
8F\L
8F\J
=7
4D\
8C/L
8C/J
=8||
*M3/4
4C/
8r
8D\
8D\L
8F\J
=9||
*M2/4
4C/
8C/L
8C/J
=10
4AA/
8GG/L
8GG/J
=11||
*M3/4
4GG/
8r
8GG/
8GG/L
8C/J
=12||
*M2/4
4C/
8F\L
8F\J
=13
4C/
8C/L
8C/J
=14
2C/
==
*-
